X: 138
T: A Cold Winter
R: waltz
M: 3/4
K: Aminor
"A"A2 ^c2 e2|"A"g3 f e2|"Gm"G2 _B2 d2|"A"e3 d ^c_B|
"A"A2 ^c2 e2|"A"g3 f e2|"Dm"d3 f e^c|"A"A6:|
|:"Dm"d3 d d2|"Dm"f2 e2 d2|"A"^c3 c c2|"A"e2 d2 ^c2|
"Gm"_B3 B B2|"Gm"d2 ^c2 _B2|1 "A"^c3 d cd|"A"e4 ^c2:|2 "A"A6-|A6:|

